X: 89
T: Old Oxford
%%VWML:Wrights-3753-p45-0
F: http://www.vwml.org/record/Wrights/3753/p45
%R: reel
B: Daniel Wright "Wright's Compleat Collection of Celebrated Country Dances" 1740 p.45
S: http://library.efdss.org/cgi-bin/dancebooks.cgi
Z: 2014 John Chambers <jc:trillian.mit.edu>
N: Repeats added to match the dance phrasing.
M: C|
L: 1/8
K: Dm %------------------------- |:\
DEFG A2D2 | FED^C | D4 | DEFG A2d2 | ^c2d2 e4 |\ f2ef g2fe | f2ed ^c2=Bc | d2A2 BAGF | E4 D4 :|
|:\
F2A2 F2A2 | FGAB c2BA | G2B2 G2B2 | GABc d3e |\ f2ef g2fe | f2ed ^c4 | d2A2 BAGF | E4 D4 :| %-------------------------
%%begintext align
%% The 1st Man clap Hands with his Partner and foot it %% with your Partner and cast off .| being in 2d Cu.
%% Place, the 1st Cu. does the same and cast off :| then %% the 1st Man turn the 3d Wo. and the 1st Wo. the 2d %% Man, then his own Partner .| the 1st Man turn the 2d %% Wo. 1st Wo. 3d Man, and turn Partners.
%%endtext
%-------------------------
%%sep 2 4 300
T: Love and a Bottle
T: Longways for as many as will.
%R: slip-jig
B: Daniel Wright "Wright's Compleat Collection of Celebrated Country Dances" 1740 p.45
S: http://library.efdss.org/cgi-bin/dancebooks.cgi
Z: 2014 John Chambers <jc:trillian.mit.edu>
N: The repeat pattern isn't clear from the dance description.
M: 9/4
L: 1/4
K: G
%-------------------------
[|\
G3 B2G AFD | A2B c>ec dBG |\
g3 f2e dcB | ABG F2G AFD |]
[|\
A3 D2c B2A | dcB ABG FED |\
g3 f2e dcB | ABG ADF G3 |]
%-------------------------
%%begintext align
%% The 1st Man take the 2d Man by the Hands
%% and turn round into their own Places again
%% .| then lead thro' between the two We. into
%% their own Places again :| the We. doing
%% the like after .| then the 1st Cu. cast off
%% below the 2d Cu. and go Back to Back,
%% and lead up between the lower Cu. on the
%% outside of the 1st Cu. set to your Partner,
%% and cast off into the 2d Cu. Place.
%%endtext
%-------------------------
%%sep 2 4 300
